X: 1
T: Lady Charlotte Campbell
C: Nathaniel Gow
S: arr. Elke Baker, from Terry Traub.
R: Strathspey
M: 4/4
K: G
L: 1/8
c |\
"G"d>c B>G "D"A<c "G"B>c | "G"d>c B>G "Am"E>A "D"F>D |\
"G"d>c B>G "D"A<c "G"Bc/d/ | "C"e>c "D"A>F "G"G2 G :|
d |\
"G"g/f/g/a/ g>d Bg dg | "G"gf/e/ f>g "D"a<A A>f |\
"G"g/f/g/a/ g>d B>g d>B | "C"e>c "D"A>F "G"G2 G, |]
d |\
"G"g/f/g/a/ g>d Bg dg | "G"gf/e/ f>g "D"aA Af |\
"G"g>d b>f "G"g>d "C"e>c | "G"B<d "D"D>F "G"G>A B |]
